X:1
T:Ladies Pleasure
M:6/8
R:Jig
K:G
L:1/8
d2G d2G | cBc ABc | d2 G edc | B2 A G2 B :|
cBc cBc | ABc def | gfg eag |  f2 e def |
g2 d gfe | d2 c ABc | d2 G edc | B2 A G3:|
